public/avatar/item0/67.svg

<svg xmlns:xlink="http://www.w3.org/1999/xlink" height="58.65" width="49.15" xmlns="http://www.w3.org/2000/svg"><g transform="translate(24.1 18.1)"><use height="22.3" transform="translate(-21.3 -1.95)" width="43.1" xlink:href="#a"/><use height="9.45" transform="translate(-16.75 18.1)" width="14.4" xlink:href="#b"/></g><defs><g id="c" fill-rule="evenodd"><path d="m-11.85.15.25 1.45-.6 5.5q-.45 3.5-3.3 4-.3 0-.25-2.2.05-2.45.75-3.95l3.15-4.8" fill="#202429" transform="translate(21.55 11.15)"/><path d="M-12.75-3.25q.15.45-.2.7l-.6.4 1.2.4q.6.45.6 2.5l-.65 1-2.8 7.9-.15 1.5q-1.55.05-2.75-.45-.75-.3-1.3-1.4l-.45-1.05Q-20.9 7.6-21.4 5.7q-.3-1.15.05-3.05l.45-1.7 2.65-4q2.4-2.05 3.9-2.05l4.8-2.5.15-.45 1.05-.9q1.2-.6 2.15.25l1.95-.1.95 1.05-4.8 2.85-1.05-.15-3.6 1.8" fill="#08090a" transform="translate(21.55 11.15)"/><path d="M-12.25 1.7q0 3.4-1.4 7.3-.3.85-1.35 1.35l-1.95.15q-1.45-.5-2.25-2.1-.45-.8 1.7-7.25.9-2.8 3.25-2.75 2.1 0 2 3.3" fill="#3d474f" transform="translate(21.55 11.15)"/><path d="M-13.1-1.3q1.1.4.9 2.9l-.4 3.15-.3 1.9-.7 2.45q-.25.55-.95.95l-1.05.7-1.65-.25q-1.7-.65.75-2.25.75-.45 1.25-1.6l1.4-3q.2-.7.2-3.8 0-1.35.55-1.15" fill="#303940" transform="translate(21.55 11.15)"/><path d="M-14.7-1.65q-1.2 1.4-1.85 3.3-.85 2.7-.85 4.55 0 2.1-.65 2.25h-1.05l-.25-.15q-.05-4.65.6-6.95t2.9-3.1l1.15.1" fill="#1a1d21" transform="translate(21.55 11.15)"/><path d="M-19.1-.5q.8-.45 1.8-.35l1 .4q-.8 1.25-1.25 3.9L-18 7.8q-.65.65-1.75-.15-1-.75-1.15-1.75-.25-1.45.3-3.65.6-2.3 1.5-2.75" fill="#abc0c4" transform="translate(21.55 11.15)"/><path d="m-16.15-.5-1 2.1-1.1-.65-1.85-.1L-18.95-1q.4-.5 1.5-.35l1.05.25.25.6" fill="#c6dfe3" transform="translate(21.55 11.15)"/><path d="m-16.25-.4-.35.9q-.3-.35-1.1-.7l-1.85.05q.95-.4 1.85-.85 1.15.05 1.45.6" fill="#384547" transform="translate(21.55 11.15)"/><path d="m-10.3-5.25-3.7 2-1-.55 2.95-1.85 3.9-1.9q1.6-.65.9.8-1.8.75-3.05 1.5" fill="#3a3e42" transform="translate(21.55 11.15)"/><path d="m-8.85-6.65.45-.15-.15.65-5.45 2.9-.3-.25 5.45-3.15" fill="#2e2f33" transform="translate(21.55 11.15)"/><path d="m-16.3-.3-1.6-.4-1.8.7 2.55-2.85q1.15-.9 2.65-1.45.95 1.1.8 1.2l-1.05.8-1.55 2" fill="#7e92a3" transform="translate(21.55 11.15)"/><path d="m-18.6 8.1-1-.35q-.8-.45-1.25-1.6L-20.8 3l1.05 1.85q.65.55 1.9.55l-.1.55V7.7q0 .4-.65.4" fill="#849496" transform="translate(21.55 11.15)"/><path d="m-16.85 1-.3.95L-18.9.7l2.05.3" fill="#f5feff" transform="translate(21.55 11.15)"/><path d="m-18.6-.55-1.1.55 1.9-2.3q1.2-1.05 2.9-1.85l.5.35-2.4 1.5-1.8 1.75" fill="#aac4db" transform="translate(21.55 11.15)"/><path d="M7.3-8.75 7.05-7.3q-2.6-2.9-6.8-2.9-2.65 0-5.2 1.35L-7-7.5l-.75-.65 1.85-1.5q2.6-1.5 6.05-1.5 4.2 0 7.15 2.4" fill="#08090a" transform="translate(21.55 11.15)"/><path d="M15 4.95q.7 1.5.75 3.95.05 2.2-.25 2.2-2.85-.5-3.3-4l-.6-5.5.25-1.45L15 4.95" fill="#202429" transform="translate(21.55 11.15)"/><path d="m9.55-7.6 4.8 2.5 1.05.25 2.85 1.8q1.35 1.2 2.65 4 1 2.9.5 4.75-.5 1.9-1.55 2.55-.55 1.95-1.75 2.45l-2.75.45-.15-1.5-2.8-7.9-.65-1 .6-2.5q.65-.4 1.2-.4l-.6-.4-.2-.7-3.6-1.8-1.05.15-4.8-2.85.95-1.05 1.95.1.65-.35 1.5.1q1.25.6 1.2 1.35" fill="#08090a" transform="translate(21.55 11.15)"/><path d="M5.95-6.2Q3.75-8.15.1-8.15q-2.3 0-4.8 1.1L-6.75-6l-.65-1.3 2.1-1.2Q-2.65-9.75.05-9.75q4.4 0 6.65 2.6l-.75.95" fill="#08090a" transform="translate(21.55 11.15)"/><path d="m.1-8.5-4.6.8-2.1.75-.35-1.3 1.65-1.2q2.3-1.2 5.25-1.2Q4.7-10.65 7.5-8l-.85 1.15Q3.45-8.5.1-8.5" fill="#3a3e42" transform="translate(21.55 11.15)"/><path d="m-6.85-8.35 1.1-.85q1.5-.95 3.75-1.35 3.65-.55 6.95 1.1l-6-.35q-1.7.05-3.65 1.1l-1.6 1.05-.55-.7" fill="#5a6066" transform="translate(21.55 11.15)"/><path d="M15 10.35q-1.05-.5-1.35-1.35-1.4-3.9-1.4-7.3-.1-3.3 2-3.3 2.35-.05 3.25 2.75 2.15 6.4 1.7 7.25-.8 1.6-2.25 2.1L15 10.35" fill="#3d474f" transform="translate(21.55 11.15)"/><path d="m14.3-1.65 1 .15q-1.45.7-2 1.35l-.25 6.9-.6-3.45q-.65-3.35.4-4.55.4-.45 1.45-.4" fill="#637480" transform="translate(21.55 11.15)"/><path d="M15.85 2.35Q14.5-.3 15.7-.75q.7-.2 1.65 1.55 1.45 1.25 1.6 3.25l.1 1.5q.5 2.3.1 3.1-.85 1.8-2.1 1.85-.7 0-1.2-.5t-.1-1.85q.3-.9.3-4.3l-.2-1.5" fill="#333c42" transform="translate(21.55 11.15)"/><path d="m14.7-1.65 1.15-.1 1.2.7q1.3.95 1.7 2.4.65 2.3.6 6.95l-.25.15h-1.05q-.65-.15-.65-2.25 0-1.85-.85-4.55l-1.85-3.3" fill="#1a1d21" transform="translate(21.55 11.15)"/><path d="M19.1-.5q.9.45 1.5 2.75.6 2.2.3 3.65-.15 1-1.15 1.75-1.05.8-1.75.15l-.45-4.35Q16.2-.25 16.3-.45q.2-.3 1.05-.4.95-.1 1.75.35" fill="#abc0c4" transform="translate(21.55 11.15)"/><path d="m16.15-.5.25-.6 1.05-.25q1.1-.15 1.5.35L20.1.85l-1.85.1-1.1.65-1-2.1" fill="#c6dfe3" transform="translate(21.55 11.15)"/><path d="M16.25-.4 17.7-1q1.1 0 1.85.85L17.7-.2l-1.1.7-.35-.9" fill="#384547" transform="translate(21.55 11.15)"/><path d="M10.3-5.25q-2.5-1.2-3.05-1.5-.55-.3-.35-.75l1.25-.05 3.9 1.9L15-3.8l-1 .55-3.7-2" fill="#3a3e42" transform="translate(21.55 11.15)"/><path d="M8.85-6.65 14.3-3.5l-.3.25-5.45-2.9-.15-.65.45.15" fill="#2e2f33" transform="translate(21.55 11.15)"/><path d="m16.3-.3-1.55-2-1.1-.8.85-1.2q.3.2 2.65 1.45Q19.2-1.25 19.7 0q-1-.65-1.8-.7l-1.6.4M8.9-7.7q.2 2.25-.85 1.85l-2-.9q-.4-.25.2-1 .6-.8 1.15-.7l1.5.75m-17.75 0 1.5-.75q.55-.1 1.15.7.6.75.2 1-.85.55-2 .9-.75.25-.95-.65-.25-.9.1-1.2" fill="#7e92a3" transform="translate(21.55 11.15)"/><path d="M18.6 8.1q-.65 0-.65-.4V5.95l-.1-.55 1.9-.55Q20.4 4.3 20.8 3q.45 2.25.05 3.15-.45 1.15-1.25 1.6l-1 .35" fill="#849496" transform="translate(21.55 11.15)"/><path d="M16.85 1 18.9.7l-1.75 1.25-.3-.95" fill="#f5feff" transform="translate(21.55 11.15)"/><path d="m18.6-.55-.45-.4L16.8-2.3l-2.4-1.5.5-.35 2.9 1.85Q19-1.25 19.7 0l-1.1-.55" fill="#aac4db" transform="translate(21.55 11.15)"/><path d="m6.5-7.75.8.3q1.55.8 1.5 1.1-.05.7-1.4.2-.95-.25-1.2-.5-.9-.75.3-1.1m-12.75 1.3-1.4.55-.95.05q-.65-.25-.35-.65l1.35-.65 1.5-.45.3.45q.05.2-.45.7" fill="#586673" transform="translate(21.55 11.15)"/></g><g id="b" fill-rule="evenodd"><path d="m-14.2 19.5 2.8 2.75q1.25.75 4.7 1.75l.4-.55q.6-.55 1.75-.45 2.6.25 2.15 3.15-.15 1.1-1.65 1.35-1.45.2-2.1-.45l-.65-.85q-4.6-1.05-6.3-2.25-1.55-1.05-2.45-2.45l-.6-1.25 1.1-.3.85-.45" fill="#202429" transform="translate(16.75 -18.1)"/><path d="M-16.65 18.65q-.3-.65.3-.55.65.05.85.55 1 2.2 3.55 4L-6 24.8q.55.2.6.55.05.35-.5.3-1.95-.15-5.85-1.6-2.25-.85-4.9-5.4" fill="#7e92a3" transform="translate(16.75 -18.1)"/><path d="M-6.4 25.05q.2-1.8 1.85-1.45 1.7.4 1.7 1.95 0 1.55-1.85 1.45-1.9-.15-1.7-1.95" fill="#3d474f" transform="translate(16.75 -18.1)"/></g><use height="22.3" width="43.1" xlink:href="#c" id="a"/></defs></svg>

<?xml version="1.0" encoding="UTF-8" standalone="no"?>
<svg xmlns:xlink="http://www.w3.org/1999/xlink" height="58.65px" width="49.15px" xmlns="http://www.w3.org/2000/svg">
  <g transform="matrix(1.0, 0.0, 0.0, 1.0, 24.1, 18.1)">
    <use height="22.3" transform="matrix(1.0, 0.0, 0.0, 1.0, -21.3, -1.95)" width="43.1" xlink:href="#sprite0"/>
    <use height="9.45" transform="matrix(1.0, 0.0, 0.0, 1.0, -16.75, 18.1)" width="14.4" xlink:href="#shape1"/>
  </g>
  <defs>
    <g id="sprite0" transform="matrix(1.0, 0.0, 0.0, 1.0, 21.55, 11.15)">
      <use height="22.3" transform="matrix(1.0, 0.0, 0.0, 1.0, -21.55, -11.15)" width="43.1" xlink:href="#shape0"/>
    </g>
    <g id="shape0" transform="matrix(1.0, 0.0, 0.0, 1.0, 21.55, 11.15)">
      <path d="M-11.85 0.15 L-11.6 1.6 -12.2 7.1 Q-12.65 10.6 -15.5 11.1 -15.8 11.1 -15.75 8.9 -15.7 6.45 -15.0 4.95 L-11.85 0.15" fill="#202429" fill-rule="evenodd" stroke="none"/>
      <path d="M-12.75 -3.25 Q-12.6 -2.8 -12.95 -2.55 L-13.55 -2.15 -12.35 -1.75 Q-11.75 -1.3 -11.75 0.75 L-12.4 1.75 -15.2 9.65 -15.35 11.15 Q-16.9 11.2 -18.1 10.7 -18.85 10.4 -19.4 9.3 L-19.85 8.25 Q-20.9 7.6 -21.4 5.7 -21.7 4.55 -21.35 2.65 L-20.9 0.95 -18.25 -3.05 Q-15.85 -5.1 -14.35 -5.1 L-9.55 -7.6 -9.4 -8.05 -8.35 -8.95 Q-7.15 -9.55 -6.2 -8.7 L-4.25 -8.8 -3.3 -7.75 -8.1 -4.9 -9.15 -5.05 -12.75 -3.25" fill="#08090a" fill-rule="evenodd" stroke="none"/>
      <path d="M-12.25 1.7 Q-12.25 5.1 -13.65 9.0 -13.95 9.85 -15.0 10.35 L-16.95 10.5 Q-18.4 10.0 -19.2 8.4 -19.65 7.6 -17.5 1.15 -16.6 -1.65 -14.25 -1.6 -12.15 -1.6 -12.25 1.7" fill="#3d474f" fill-rule="evenodd" stroke="none"/>
      <path d="M-13.1 -1.3 Q-12.0 -0.9 -12.2 1.6 L-12.6 4.75 -12.9 6.65 -13.6 9.1 Q-13.85 9.65 -14.55 10.05 L-15.6 10.75 -17.25 10.5 Q-18.95 9.85 -16.5 8.25 -15.75 7.8 -15.25 6.65 L-13.85 3.65 Q-13.65 2.95 -13.65 -0.15 -13.65 -1.5 -13.1 -1.3" fill="#303940" fill-rule="evenodd" stroke="none"/>
      <path d="M-14.7 -1.65 Q-15.9 -0.25 -16.55 1.65 -17.4 4.35 -17.4 6.2 -17.4 8.3 -18.05 8.45 L-19.1 8.45 -19.35 8.3 Q-19.4 3.65 -18.75 1.35 -18.1 -0.95 -15.85 -1.75 L-14.7 -1.65" fill="#1a1d21" fill-rule="evenodd" stroke="none"/>
      <path d="M-19.1 -0.5 Q-18.3 -0.95 -17.3 -0.85 L-16.3 -0.45 Q-17.1 0.8 -17.55 3.45 L-18.0 7.8 Q-18.65 8.45 -19.75 7.65 -20.75 6.9 -20.9 5.9 -21.15 4.45 -20.6 2.25 -20.0 -0.05 -19.1 -0.5" fill="#abc0c4" fill-rule="evenodd" stroke="none"/>
      <path d="M-16.15 -0.5 L-17.15 1.6 -18.25 0.95 -20.1 0.85 -18.95 -1.0 Q-18.55 -1.5 -17.45 -1.35 L-16.4 -1.1 -16.15 -0.5" fill="#c6dfe3" fill-rule="evenodd" stroke="none"/>
      <path d="M-16.25 -0.4 L-16.6 0.5 Q-16.9 0.15 -17.7 -0.2 L-19.55 -0.15 Q-18.6 -0.55 -17.7 -1.0 -16.55 -0.95 -16.25 -0.4" fill="#384547" fill-rule="evenodd" stroke="none"/>
      <path d="M-10.3 -5.25 L-14.0 -3.25 -15.0 -3.8 -12.05 -5.65 -8.15 -7.55 Q-6.55 -8.2 -7.25 -6.75 -9.05 -6.0 -10.3 -5.25" fill="#3a3e42" fill-rule="evenodd" stroke="none"/>
      <path d="M-8.85 -6.65 L-8.4 -6.8 -8.55 -6.15 -14.0 -3.25 -14.3 -3.5 -8.85 -6.65" fill="#2e2f33" fill-rule="evenodd" stroke="none"/>
      <path d="M-16.3 -0.3 L-17.9 -0.7 -19.7 0.0 -17.15 -2.85 Q-16.0 -3.75 -14.5 -4.3 -13.55 -3.2 -13.7 -3.1 L-14.75 -2.3 -16.3 -0.3" fill="#7e92a3" fill-rule="evenodd" stroke="none"/>
      <path d="M-18.6 8.1 L-19.6 7.75 Q-20.4 7.3 -20.85 6.15 L-20.8 3.0 -19.75 4.85 Q-19.1 5.4 -17.85 5.4 L-17.95 5.95 -17.95 7.7 Q-17.95 8.1 -18.6 8.1" fill="#849496" fill-rule="evenodd" stroke="none"/>
      <path d="M-16.85 1.0 L-17.15 1.95 -18.9 0.7 -16.85 1.0" fill="#f5feff" fill-rule="evenodd" stroke="none"/>
      <path d="M-18.6 -0.55 L-19.7 0.0 -17.8 -2.3 Q-16.6 -3.35 -14.9 -4.15 L-14.4 -3.8 -16.8 -2.3 -18.6 -0.55" fill="#aac4db" fill-rule="evenodd" stroke="none"/>
      <path d="M7.3 -8.75 L7.05 -7.3 Q4.45 -10.2 0.25 -10.2 -2.4 -10.2 -4.95 -8.85 L-7.0 -7.5 -7.75 -8.15 -5.9 -9.65 Q-3.3 -11.15 0.15 -11.15 4.35 -11.15 7.3 -8.75" fill="#08090a" fill-rule="evenodd" stroke="none"/>
      <path d="M15.0 4.95 Q15.7 6.45 15.75 8.9 15.8 11.1 15.5 11.1 12.65 10.6 12.2 7.1 L11.6 1.6 11.85 0.15 15.0 4.95" fill="#202429" fill-rule="evenodd" stroke="none"/>
      <path d="M9.55 -7.6 L14.35 -5.1 15.4 -4.85 18.25 -3.05 Q19.6 -1.85 20.9 0.95 21.9 3.85 21.4 5.7 20.9 7.6 19.85 8.25 19.3 10.2 18.1 10.7 L15.35 11.15 15.2 9.65 12.4 1.75 11.75 0.75 12.35 -1.75 Q13.0 -2.15 13.55 -2.15 L12.95 -2.55 12.75 -3.25 9.15 -5.05 8.1 -4.9 3.3 -7.75 4.25 -8.8 6.2 -8.7 6.85 -9.05 8.35 -8.95 Q9.6 -8.35 9.55 -7.6" fill="#08090a" fill-rule="evenodd" stroke="none"/>
      <path d="M5.95 -6.2 Q3.75 -8.15 0.1 -8.15 -2.2 -8.15 -4.7 -7.05 L-6.75 -6.0 -7.4 -7.3 -5.3 -8.5 Q-2.65 -9.75 0.05 -9.75 4.45 -9.75 6.7 -7.15 L5.95 -6.2" fill="#08090a" fill-rule="evenodd" stroke="none"/>
      <path d="M0.1 -8.5 L-4.5 -7.7 -6.6 -6.95 -6.95 -8.25 -5.3 -9.45 Q-3.0 -10.65 -0.05 -10.65 4.7 -10.65 7.5 -8.0 L6.65 -6.85 Q3.45 -8.5 0.1 -8.5" fill="#3a3e42" fill-rule="evenodd" stroke="none"/>
      <path d="M-6.85 -8.35 L-5.75 -9.2 Q-4.25 -10.15 -2.0 -10.55 1.65 -11.1 4.95 -9.45 L-1.05 -9.8 Q-2.75 -9.75 -4.7 -8.7 L-6.3 -7.65 -6.85 -8.35" fill="#5a6066" fill-rule="evenodd" stroke="none"/>
      <path d="M15.0 10.35 Q13.95 9.85 13.65 9.0 12.25 5.1 12.25 1.7 12.15 -1.6 14.25 -1.6 16.6 -1.65 17.5 1.15 19.65 7.55 19.2 8.4 18.4 10.0 16.95 10.5 L15.0 10.35" fill="#3d474f" fill-rule="evenodd" stroke="none"/>
      <path d="M14.3 -1.65 L15.3 -1.5 Q13.85 -0.8 13.3 -0.15 L13.05 6.75 12.45 3.3 Q11.8 -0.05 12.85 -1.25 13.25 -1.7 14.3 -1.65" fill="#637480" fill-rule="evenodd" stroke="none"/>
      <path d="M15.85 2.35 Q14.5 -0.3 15.7 -0.75 16.4 -0.95 17.35 0.8 18.8 2.05 18.95 4.05 L19.05 5.55 Q19.55 7.85 19.15 8.65 18.3 10.45 17.05 10.5 16.35 10.5 15.85 10.0 15.35 9.5 15.75 8.15 16.05 7.25 16.05 3.85 L15.85 2.35" fill="#333c42" fill-rule="evenodd" stroke="none"/>
      <path d="M14.7 -1.65 L15.85 -1.75 17.05 -1.05 Q18.35 -0.1 18.75 1.35 19.4 3.65 19.35 8.3 L19.1 8.45 18.05 8.45 Q17.4 8.3 17.4 6.2 17.4 4.35 16.55 1.65 L14.7 -1.65" fill="#1a1d21" fill-rule="evenodd" stroke="none"/>
      <path d="M19.1 -0.5 Q20.0 -0.05 20.6 2.25 21.2 4.45 20.9 5.9 20.75 6.9 19.75 7.65 18.7 8.45 18.0 7.8 L17.55 3.45 Q16.2 -0.25 16.3 -0.45 16.5 -0.75 17.35 -0.85 18.3 -0.95 19.1 -0.5" fill="#abc0c4" fill-rule="evenodd" stroke="none"/>
      <path d="M16.15 -0.5 L16.4 -1.1 17.45 -1.35 Q18.55 -1.5 18.95 -1.0 L20.1 0.85 18.25 0.95 17.15 1.6 16.15 -0.5" fill="#c6dfe3" fill-rule="evenodd" stroke="none"/>
      <path d="M16.25 -0.4 L17.7 -1.0 Q18.8 -1.0 19.55 -0.15 L17.7 -0.2 16.6 0.5 16.25 -0.4" fill="#384547" fill-rule="evenodd" stroke="none"/>
      <path d="M10.3 -5.25 Q7.8 -6.45 7.25 -6.75 6.7 -7.05 6.9 -7.5 L8.15 -7.55 12.05 -5.65 15.0 -3.8 14.0 -3.25 10.3 -5.25" fill="#3a3e42" fill-rule="evenodd" stroke="none"/>
      <path d="M8.85 -6.65 L14.3 -3.5 14.0 -3.25 8.55 -6.15 8.4 -6.8 8.85 -6.65" fill="#2e2f33" fill-rule="evenodd" stroke="none"/>
      <path d="M16.3 -0.3 L14.75 -2.3 13.65 -3.1 14.5 -4.3 Q14.8 -4.1 17.15 -2.85 19.2 -1.25 19.7 0.0 18.7 -0.65 17.9 -0.7 L16.3 -0.3" fill="#7e92a3" fill-rule="evenodd" stroke="none"/>
      <path d="M8.9 -7.7 Q9.1 -5.45 8.05 -5.85 L6.05 -6.75 Q5.65 -7.0 6.25 -7.75 6.85 -8.55 7.4 -8.45 L8.9 -7.7" fill="#7e92a3" fill-rule="evenodd" stroke="none"/>
      <path d="M-8.85 -7.7 L-7.35 -8.45 Q-6.8 -8.55 -6.2 -7.75 -5.6 -7.0 -6.0 -6.75 -6.85 -6.2 -8.0 -5.85 -8.75 -5.6 -8.95 -6.5 -9.2 -7.4 -8.85 -7.7" fill="#7e92a3" fill-rule="evenodd" stroke="none"/>
      <path d="M18.6 8.1 Q17.95 8.1 17.95 7.7 L17.95 5.95 17.85 5.4 19.75 4.85 Q20.4 4.3 20.8 3.0 21.25 5.25 20.85 6.15 20.4 7.3 19.6 7.75 L18.6 8.1" fill="#849496" fill-rule="evenodd" stroke="none"/>
      <path d="M16.85 1.0 L18.9 0.7 17.15 1.95 16.85 1.0" fill="#f5feff" fill-rule="evenodd" stroke="none"/>
      <path d="M18.6 -0.55 L18.15 -0.95 16.8 -2.3 14.4 -3.8 14.9 -4.15 17.8 -2.3 Q19.0 -1.25 19.7 0.0 L18.6 -0.55" fill="#aac4db" fill-rule="evenodd" stroke="none"/>
      <path d="M6.5 -7.75 L7.3 -7.45 Q8.85 -6.65 8.8 -6.35 8.75 -5.65 7.4 -6.15 6.45 -6.4 6.2 -6.65 5.3 -7.4 6.5 -7.75" fill="#586673" fill-rule="evenodd" stroke="none"/>
      <path d="M-6.25 -6.45 L-7.65 -5.9 -8.6 -5.85 Q-9.25 -6.1 -8.95 -6.5 L-7.6 -7.15 -6.1 -7.6 -5.8 -7.15 Q-5.75 -6.95 -6.25 -6.45" fill="#586673" fill-rule="evenodd" stroke="none"/>
    </g>
    <g id="shape1" transform="matrix(1.0, 0.0, 0.0, 1.0, 16.75, -18.1)">
      <path d="M-14.2 19.5 L-11.4 22.25 Q-10.15 23.0 -6.7 24.0 L-6.3 23.45 Q-5.7 22.9 -4.55 23.0 -1.95 23.25 -2.4 26.15 -2.55 27.25 -4.05 27.5 -5.5 27.7 -6.15 27.05 L-6.8 26.2 Q-11.4 25.15 -13.1 23.95 -14.65 22.9 -15.55 21.5 L-16.15 20.25 -15.05 19.95 -14.2 19.5" fill="#202429" fill-rule="evenodd" stroke="none"/>
      <path d="M-16.65 18.65 Q-16.95 18.0 -16.35 18.1 -15.7 18.15 -15.5 18.65 -14.5 20.85 -11.95 22.65 L-6.0 24.8 Q-5.45 25.0 -5.4 25.35 -5.35 25.7 -5.9 25.65 -7.85 25.5 -11.75 24.05 -14.0 23.2 -16.65 18.65" fill="#7e92a3" fill-rule="evenodd" stroke="none"/>
      <path d="M-6.4 25.05 Q-6.2 23.25 -4.55 23.6 -2.85 24.0 -2.85 25.55 -2.85 27.1 -4.7 27.0 -6.6 26.85 -6.4 25.05" fill="#3d474f" fill-rule="evenodd" stroke="none"/>
    </g>
  </defs>
</svg>
